assets/images/location.svg

<svg xmlns="http://www.w3.org/2000/svg" height="24" viewBox="0 0 24 24" width="24"><path d="M12 2C8.13 2 5 5.13 5 9c0 5.25 7 13 7 13s7-7.75 7-13c0-3.87-3.13-7-7-7zm0 9.5c-1.38 0-2.5-1.12-2.5-2.5s1.12-2.5 2.5-2.5 2.5 1.12 2.5 2.5-1.12 2.5-2.5 2.5z"/><path d="M0 0h24v24H0z" fill="none"/></svg>

<svg viewBox="0 0 26 26">
  <g fill="none" fill-rule="evenodd">
    <path d="M12,2 C8.13,2 5,5.13 5,9 C5,14.25 12,22 12,22 C12,22 19,14.25 19,9 C19,5.13 15.87,2 12,2 Z M12,11.5 C10.62,11.5 9.5,10.38 9.5,9 C9.5,7.62 10.62,6.5 12,6.5 C13.38,6.5 14.5,7.62 14.5,9 C14.5,10.38 13.38,11.5 12,11.5 Z" fill="currentColor" fill-rule="nonzero" transform="translate(1.000000, 1.000000)"/>
    <path d="M0 0L24 0 24 24 0 24z" transform="translate(1.000000, 1.000000)"/>
  </g>
</svg>
